source/img/icons/icon-earth.svg

<svg width="80" height="80" viewBox="0 0 80 80" fill="none" xmlns="http://www.w3.org/2000/svg">
<circle opacity="0.1" cx="40" cy="40" r="40" fill="white"/>
<path d="M52.3743 27.6364C50.7522 25.9982 48.8224 24.6967 46.6958 23.8066C44.5692 22.9166 42.2877 22.4554 39.9823 22.4498C37.6769 22.4441 35.3931 22.894 33.2621 23.7736C31.1312 24.6532 29.195 25.9452 27.5648 27.5753C25.9347 29.2055 24.6427 31.1417 23.7631 33.2727C22.8835 35.4036 22.4336 37.6874 22.4393 39.9928C22.4449 42.2982 22.9061 44.5797 23.7962 46.7063C24.6862 48.8329 25.9877 50.7627 27.6259 52.3848C29.248 54.023 31.1778 55.3245 33.3044 56.2146C35.4311 57.1047 37.7126 57.5658 40.018 57.5715C42.3233 57.5772 44.6071 57.1273 46.7381 56.2477C48.8691 55.3681 50.8052 54.0761 52.4354 52.4459C54.0655 50.8158 55.3575 48.8796 56.2371 46.7486C57.1168 44.6176 57.5667 42.3338 57.561 40.0285C57.5553 37.7231 57.0942 35.4416 56.2041 33.3149C55.314 31.1883 54.0125 29.2585 52.3743 27.6364ZM25.0001 40.0106C24.9996 38.6831 25.1756 37.3613 25.5236 36.0802C26.097 37.3145 26.9298 38.3809 27.4962 39.6473C28.2282 41.2755 30.1939 40.8239 31.0618 42.2505C31.8322 43.5169 31.0095 45.1184 31.5861 46.4434C32.0048 47.4052 32.9923 47.6153 33.6736 48.3184C34.3697 49.0278 34.3548 49.9997 34.4611 50.9247C34.581 52.0115 34.7754 53.0888 35.0431 54.1489C35.0431 54.1567 35.0431 54.1653 35.0493 54.1731C29.2032 52.12 25.0001 46.5473 25.0001 40.0106ZM40.0001 55.0106C39.1624 55.0104 38.3262 54.9403 37.5001 54.8013C37.5087 54.5895 37.5126 54.3919 37.5337 54.2544C37.7236 53.0122 38.3454 51.7973 39.1845 50.8677C40.0134 49.9505 41.1493 49.3302 41.8493 48.2895C42.5353 47.2739 42.7407 45.9067 42.4579 44.72C42.0415 42.9669 39.6595 42.3817 38.3751 41.4309C37.6368 40.8841 36.9798 40.0387 36.0103 39.97C35.5634 39.9387 35.1892 40.0348 34.7462 39.9208C34.34 39.8153 34.0212 39.5966 33.5884 39.6536C32.7798 39.7598 32.2697 40.6239 31.4009 40.5067C30.5767 40.3966 29.7275 39.4317 29.54 38.6466C29.2993 37.6372 30.0978 37.3098 30.9532 37.22C31.3103 37.1825 31.7111 37.1419 32.054 37.2731C32.5056 37.4403 32.7189 37.8825 33.1243 38.1059C33.8845 38.5231 34.0384 37.8567 33.922 37.1817C33.7478 36.1708 33.5447 35.7591 34.4462 35.063C35.0712 34.5833 35.6056 34.2364 35.5056 33.3747C35.4462 32.8684 35.1689 32.6395 35.4275 32.1356C35.6236 31.752 36.1618 31.4059 36.5126 31.177C37.4181 30.5864 40.3915 30.6302 39.1767 28.977C38.8197 28.4919 38.1611 27.6247 37.5361 27.5059C36.7548 27.3583 36.4079 28.2302 35.8634 28.6145C35.3009 29.0122 34.2056 29.4637 33.6423 28.8489C32.8845 28.0216 34.1447 27.7505 34.4236 27.1723C34.5525 26.9028 34.4236 26.5286 34.2064 26.1762C34.4881 26.0575 34.7746 25.9473 35.0657 25.8458C35.2482 25.9805 35.4647 26.0617 35.6907 26.0802C36.2134 26.1145 36.7064 25.8317 37.1626 26.188C37.6689 26.5786 38.0337 27.0723 38.7056 27.1942C39.3556 27.3122 40.0439 26.9333 40.2048 26.2677C40.3025 25.863 40.2048 25.4356 40.1111 25.0177C43.0329 25.0345 45.8855 25.9095 48.3142 27.5341C48.1579 27.4747 47.9712 27.4817 47.7407 27.5887C47.2665 27.8091 46.5947 28.37 46.5392 28.9262C46.4759 29.5575 47.4071 29.6466 47.8493 29.6466C48.5134 29.6466 49.1861 29.3497 48.972 28.5825C48.879 28.2497 48.7525 27.9036 48.5486 27.6942C49.0387 28.0343 49.5083 28.4032 49.9548 28.7989C49.9478 28.8059 49.9407 28.8122 49.9337 28.82C49.4837 29.2887 48.9611 29.6598 48.6532 30.2302C48.4361 30.6317 48.1915 30.8223 47.7517 30.9262C47.5095 30.9833 47.2329 31.0044 47.0298 31.1669C46.4642 31.6122 46.7861 32.6825 47.322 33.0036C47.9993 33.4091 49.004 33.2184 49.515 32.6395C49.9142 32.1864 50.1493 31.3997 50.8673 31.4005C51.1834 31.3998 51.487 31.5236 51.7126 31.745C52.0095 32.0528 51.9509 32.3403 52.0142 32.7247C52.1259 33.4075 52.7282 33.0372 53.0946 32.6927C53.3617 33.168 53.6027 33.6575 53.8165 34.1591C53.4134 34.7395 53.0931 35.3723 52.1236 34.6958C51.5431 34.2903 51.1861 33.702 50.4571 33.5192C49.8204 33.363 49.1681 33.5255 48.5392 33.6341C47.8243 33.7583 46.9767 33.813 46.4345 34.3544C45.9103 34.8762 45.6329 35.5747 45.0751 36.0989C43.9962 37.1145 43.5407 38.2231 44.2392 39.6591C44.9111 41.0395 46.3165 41.7887 47.8329 41.6903C49.3228 41.5911 50.8704 40.727 50.8275 42.8919C50.8118 43.6583 50.972 44.1888 51.2071 44.9005C51.4251 45.5567 51.4103 46.1927 51.4603 46.87C51.5078 47.6632 51.6318 48.4499 51.8306 49.2192C50.4303 51.0222 48.6364 52.4812 46.586 53.485C44.5357 54.4887 42.283 55.0105 40.0001 55.0106Z" fill="#3671E9"/>
</svg>

<svg width="80" height="80" fill="none" xmlns="http://www.w3.org/2000/svg"><circle opacity=".1" cx="40" cy="40" r="40" fill="#fff"/><path d="M52.374 27.636a17.5 17.5 0 10-24.748 24.749 17.5 17.5 0 1024.748-24.749zM25 40.011c0-1.328.176-2.65.524-3.93.573 1.233 1.406 2.3 1.972 3.566.732 1.629 2.698 1.177 3.566 2.604.77 1.266-.053 2.867.524 4.192.419.962 1.406 1.172 2.088 1.875.696.71.68 1.682.787 2.607a23.809 23.809 0 00.588 3.248C29.203 52.12 25 46.547 25 40.011zm15 15c-.838 0-1.674-.07-2.5-.21.009-.212.013-.41.034-.547.19-1.242.811-2.457 1.65-3.386.83-.918 1.965-1.538 2.665-2.579.686-1.015.892-2.382.609-3.569-.416-1.753-2.798-2.338-4.083-3.29-.738-.546-1.395-1.391-2.365-1.46-.447-.031-.82.065-1.264-.05-.406-.105-.725-.323-1.158-.266-.808.106-1.318.97-2.187.853-.824-.11-1.674-1.075-1.861-1.86-.24-1.01.558-1.337 1.413-1.427.357-.038.758-.078 1.101.053.452.167.665.61 1.07.833.76.417.914-.25.798-.924-.174-1.011-.377-1.423.524-2.119.625-.48 1.16-.827 1.06-1.688-.06-.507-.337-.736-.078-1.24.196-.383.734-.73 1.085-.958.905-.59 3.879-.547 2.664-2.2-.357-.485-1.016-1.352-1.64-1.471-.782-.148-1.13.724-1.674 1.108-.562.398-1.657.85-2.22.235-.758-.827.502-1.099.78-1.677.13-.27 0-.643-.217-.996.282-.118.569-.229.86-.33.182.134.399.216.625.234.522.035 1.015-.248 1.472.108.506.39.87.884 1.543 1.006.65.118 1.338-.26 1.499-.926.098-.405 0-.832-.094-1.25 2.922.017 5.775.892 8.203 2.516-.156-.06-.343-.052-.573.055-.474.22-1.146.781-1.202 1.337-.063.632.868.72 1.31.72.664 0 1.337-.296 1.123-1.064-.093-.332-.22-.678-.423-.888.49.34.96.71 1.406 1.105l-.021.021c-.45.469-.973.84-1.28 1.41-.218.402-.463.592-.902.696-.242.057-.52.078-.722.24-.566.446-.244 1.516.292 1.838.677.405 1.682.214 2.193-.364.4-.454.634-1.24 1.352-1.24.316 0 .62.124.846.345.297.308.238.595.301.98.112.682.714.312 1.08-.032.268.475.509.965.722 1.466-.403.58-.723 1.213-1.692.537-.58-.406-.938-.994-1.667-1.177-.637-.156-1.289.007-1.918.115-.715.124-1.562.179-2.105.72-.524.522-.801 1.22-1.359 1.745-1.079 1.016-1.534 2.124-.836 3.56.672 1.38 2.078 2.13 3.594 2.031 1.49-.099 3.037-.963 2.995 1.202-.016.766.144 1.297.38 2.008.217.657.202 1.293.252 1.97.048.793.172 1.58.37 2.35A14.98 14.98 0 0140 55.01z" fill="#3671E9"/></svg>
